X: 9619
T: Dawn, The
R: reel
M: 4/4
K: Gmajor
G,2B,D C2EG|DFAF ~G3B|ADBD cDBG|(3ABc BA GEDB,|
G,2B,D CEGE|D2FA ~G3d|edef gedc|BdAd BG~G2:|
~g3d edBd|eaaf gfed|(3fed ad bdad|gbdg bdef|
~g3d edBd|cdef g3e|~d2ge dBGB|cBAc BG G3:|

